pix_core/f/h5p.svg

<svg fill="none" preserveAspectRatio="xMinYMid meet" viewBox="0 0 24 24" xmlns="http://www.w3.org/2000/svg"><g fill="#fff"><path clip-rule="evenodd" d="m4.5 5c0-1.38071 1.11929-2.5 2.5-2.5h6.1716c.663 0 1.2989.26339 1.7677.73223l3.8285 3.82843c.4688.46884.7322 1.10473.7322 1.76777v10.17157c0 1.3807-1.1193 2.5-2.5 2.5h-10c-1.38071 0-2.5-1.1193-2.5-2.5 0-.2761.22386-.5.5-.5s.5.2239.5.5c0 .8284.67157 1.5 1.5 1.5h10c.8284 0 1.5-.6716 1.5-1.5v-10c0-.27614-.2239-.5-.5-.5h-3c-.8284 0-1.5-.67157-1.5-1.5v-3c0-.27614-.2239-.5-.5-.5h-6c-.82843 0-1.5.67157-1.5 1.5v5c0 .2761-.22386.5-.5.5s-.5-.2239-.5-.5zm10 2v-2.79289l3.2929 3.29289h-2.7929c-.2761 0-.5-.22386-.5-.5z" fill-rule="evenodd"/><path clip-rule="evenodd" d="m14.876 12.8991c-.1676-.5301-.7071-.868-1.4224-.8881-.5108-.0143-1.0219-.0115-1.5333-.0088-.2046.0011-.4093.0022-.614.0022-.0427.0066-.0844.0181-.124.0344v.9877l-.7149-.0003c-.47612-.0004-.95219-.0009-1.42924.0039-.07887 0-.21104.0277-.22627.0709-.05518.1608-.09443.3266-.13593.5019-.01535.0648-.03102.131-.04791.1987 1.36359-.4484 2.29425.0154 2.63365.696.2431.4864.2219.9759.0103 1.4679-.2116.4921-.5613.8373-1.0878 1.0222h2.2873v-1.8183c.1493 0 .2247.0014.2835.0026.0857.0016.1362.0026.3288-.0026.5036-.0164 1.0073-.0704 1.3929-.415.5853-.5245.6136-1.1778.3993-1.8553zm-1.9897 1.204c-.097.0106-.1369.0168-.1642.0211-.0453.007-.0562.0087-.2338.0164v-1.1156c.1798.0078.1901.0094.2416.0174.0295.0047.0726.0114.1689.0226.3074.036.4841.243.4841.5214.0025.1296-.0475.2553-.1398.3513-.0922.0961-.2199.1552-.3568.1654z" fill-rule="evenodd"/><path d="m9.43556 14.5822c-.27739-.1238-.59286-.0642-.83055.1402-.07832.0678-.18928.1577-.27685.15-.31233-.027-.62287-.0705-.94116-.115-.11066-.0155-.22246-.0312-.3354-.0463l.63638-2.6914h-1.47859v2.0987h-1.59343v-2.1028h-1.61596v4.9756h1.62902v-1.8024h1.59234v1.8111h2.04806c-.83763-.4736-1.09544-.753-1.19171-1.2779.10526-.0146.21045-.0297.31562-.0447.3133-.0448.62645-.0896.94081-.1223.07506-.0077.17569.0601.23878.1182.21104.1952.4509.2835.74189.2095.1464-.0345.27739-.1121.37407-.2215.09669-.1094.15407-.2449.16386-.3871.01586-.1421-.01587-.2852-.09071-.4093-.07484-.1242-.18902-.223-.32647-.2826z"/></g></svg>

<svg viewBox="0 0 24 24" fill="none" xmlns="http://www.w3.org/2000/svg" preserveAspectRatio="xMinYMid meet">
<path fill-rule="evenodd" clip-rule="evenodd" d="M4.5 5C4.5 3.61929 5.61929 2.5 7 2.5H13.1716C13.8346 2.5 14.4705 2.76339 14.9393 3.23223L18.7678 7.06066C19.2366 7.5295 19.5 8.16539 19.5 8.82843V19C19.5 20.3807 18.3807 21.5 17 21.5H7C5.61929 21.5 4.5 20.3807 4.5 19C4.5 18.7239 4.72386 18.5 5 18.5C5.27614 18.5 5.5 18.7239 5.5 19C5.5 19.8284 6.17157 20.5 7 20.5H17C17.8284 20.5 18.5 19.8284 18.5 19V9C18.5 8.72386 18.2761 8.5 18 8.5H15C14.1716 8.5 13.5 7.82843 13.5 7V4C13.5 3.72386 13.2761 3.5 13 3.5H7C6.17157 3.5 5.5 4.17157 5.5 5V10C5.5 10.2761 5.27614 10.5 5 10.5C4.72386 10.5 4.5 10.2761 4.5 10V5ZM14.5 7V4.20711L17.7929 7.5H15C14.7239 7.5 14.5 7.27614 14.5 7Z" fill="#fff"/>
<path fill-rule="evenodd" clip-rule="evenodd" d="M14.876 12.8991C14.7084 12.369 14.1689 12.0311 13.4536 12.011C12.9428 11.9967 12.4317 11.9995 11.9203 12.0022C11.7157 12.0033 11.511 12.0044 11.3063 12.0044C11.2636 12.011 11.2219 12.0225 11.1823 12.0388V13.0265L10.4674 13.0262C9.99128 13.0258 9.51521 13.0253 9.03816 13.0301C8.95929 13.0301 8.82712 13.0578 8.81189 13.101C8.75671 13.2618 8.71746 13.4276 8.67596 13.6029C8.66061 13.6677 8.64494 13.7339 8.62805 13.8016C9.99164 13.3532 10.9223 13.817 11.2617 14.4976C11.5048 14.984 11.4836 15.4735 11.272 15.9655C11.0604 16.4576 10.7107 16.8028 10.1842 16.9877H12.4715V15.1694C12.6208 15.1694 12.6962 15.1708 12.755 15.172C12.8407 15.1736 12.8912 15.1746 13.0838 15.1694C13.5874 15.153 14.0911 15.099 14.4767 14.7544C15.062 14.2299 15.0903 13.5766 14.876 12.8991ZM12.8863 14.1031C12.7893 14.1137 12.7494 14.1199 12.7221 14.1242C12.6768 14.1312 12.6659 14.1329 12.4883 14.1406V13.025C12.6681 13.0328 12.6784 13.0344 12.7299 13.0424C12.7594 13.0471 12.8025 13.0538 12.8988 13.065C13.2062 13.101 13.3829 13.308 13.3829 13.5864C13.3854 13.716 13.3354 13.8417 13.2431 13.9377C13.1509 14.0338 13.0232 14.0929 12.8863 14.1031Z" fill="#fff"/>
<path fill="#fff" d="M9.43556 14.5822C9.15817 14.4584 8.8427 14.518 8.60501 14.7224C8.52669 14.7902 8.41573 14.8801 8.32816 14.8724C8.01583 14.8454 7.70529 14.8019 7.387 14.7574C7.27634 14.7419 7.16454 14.7262 7.0516 14.7111L7.68798 12.0197H6.20939V14.1184H4.61596V12.0156H3V16.9912H4.62902V15.1888H6.22136V16.9999H8.26942C7.43179 16.5263 7.17398 16.2469 7.07771 15.722C7.18297 15.7074 7.28816 15.6923 7.39333 15.6773C7.70663 15.6325 8.01978 15.5877 8.33414 15.555C8.4092 15.5473 8.50983 15.6151 8.57292 15.6732C8.78396 15.8684 9.02382 15.9567 9.31481 15.8827C9.46121 15.8482 9.5922 15.7706 9.68888 15.6612C9.78557 15.5518 9.84295 15.4163 9.85274 15.2741C9.8686 15.132 9.83687 14.9889 9.76203 14.8648C9.68719 14.7406 9.57301 14.6418 9.43556 14.5822Z" fill="#fff"/>
</svg>
